X: 1150
T: İndim Havuz Başına
C: Ahmet Yamacı
O: Turkey
F: http://compmusic.upf.edu/node/140
N: huzzam--turku--sofyan--indim_havuz--istanbul
N: makam= huzzam
N: form= turku
N: usul= sofyan = 4/4
M: 4/4
L: 1/16
K: C _1/4B _3/4e ^3/4f 
Q: 1/4=90
%%MIDI tuningsystem comma53
g4 g4 gafg e2d2  | f4 f4 fgef dec2  | \
w:  ARANAĞME  |   | 
d2e2 e2d2 f2fg fe2d  | 
w:   | 
d2d=e dccB B6z2  | g4 g4 gafg e2d2  | \
w:   |  ARANAĞME  | 
f4 f4 fgef dec2  | 
w:   | 
d2e2 e2d2 f2fg fe2d  | d2d=e dccB B6z2  | \
w:   |   | 
g2a2 a2g2 gafg f4  | 
w:  İn *  dim  *  ha *  *  *  vuz   | 
g2a2 a2g2 gafg f4  | g2a2 a2g2 gafg f2e2  | \
w:  ba *  şı *  na    |  Bir  *  kız  *  çık *  *  *  tı   | 
f3g feed d6z2  | 
w:  kar *  şı *  *  *  ma    | 
g2a2 a2g2 gafg f4  | g2a2 a2g2 gafg f4  | \
w:  İn *  dim  *  ha *  *  *  vuz   |  ba *  şı *  na    | 
g2a2 a2g2 gafg f2e2  | 
w:  Bir  *  kız  *  çık *  *  *  tı   | 
f3g feed d6z2  | fg3 g4 gafg e2d2  | \
w:  kar *  şı *  *  *  ma    |  Sev *  dâ  ne *  *  *  dir   | 
f4 f4 fgef dec2  | 
w:  bil mez dim    | 
d2e4d2 f3g fe2d  | d3e dccB B6z2  | fg3 g4 gafg e2d2  | 
w:  O  da  *  gel *  di   |  ba *  şı *  *  *  ma    |  Sev *  dâ  ne *  *  *  dir   | 
f4 f4 fgef dec2  | d2e4d2 f3g fe2d  | \
w:  bil mez dim    |  O  da  *  gel *  di   | 
d3e dccB B6z2  | 
w:  ba *  şı *  *  *  ma    | 
g2a2 a2g2 gafg f4  | g2a2 a2g2 gafg f4  | \
w:  Ge le mem  *  ben   |  gi de mem  *  ben    | 
a3a a2ag gf2g fe2d  | 
w:  Her  gü ze le  *  gö *  *  nül   | 
f2fg fe2d d6z2  | f3g g4 gafg e2d2  | \
w:  ve re *  mem  *  *  ben    |  Aç  *  kol la *  *  *  rın   | 
f4 f4 fgef dec2  | 
w:  sar  boy nu *  *  *  ma    | 
d2e2 e2d2 f2fg fe2d  | d2d=e dccB B6z2  | \
w:  Ü şü düm  *  ü şü *  düm   |  sa ra *  mam  *  *  *  ben    | 
f3g g4 gafg e2d2  | 
w:  Aç  *  kol la *  *  *  rın   | 
f4 f4 fgef dec2  | d2e2 e2d2 f2fg fe2d  | \
w:  sar  boy nu *  *  *  ma    |  Ü şü düm  *  ü şü *  düm   | 
d2d=e dccB B6z2  | 
w:  sa ra *  mam  *  *  *  ben    | 
g4 g4 gafg e2d2  | f4 f4 fgef dec2  | \
w:  ARANAĞME  |   | 
d2e2 e2d2 f2fg fe2d  | 
w:   | 
d2d=e dccB B6z2  | g4 g4 gafg e2d2  | \
w:   |  ARANAĞME  | 
f4 f4 fgef dec2  | 
w:   | 
d2e2 e2d2 f2fg fe2d  | d2d=e dccB B6z2  | \
w:   |   | 
g2a2 a2g2 gafg f4  | 
w:  İn *  dim  *  ha *  *  *  vuz   | 
g2a2 a2g2 gafg f4  | g2a2 a2g2 gafg f2e2  | \
w:  ba *  şı *  na    |  Bir  *  kız  *  çık *  *  *  tı   | 
f3g feed d6z2  | 
w:  kar *  şı *  *  *  ma    | 
g2a2 a2g2 gafg f4  | g2a2 a2g2 gafg f4  | \
w:  İn *  dim  *  ha *  *  *  vuz   |  ba *  şı *  na    | 
g2a2 a2g2 gafg f2e2  | 
w:  Bir  *  kız  *  çık *  *  *  tı   | 
f3g feed d6z2  | fg3 g4 gafg e2d2  | \
w:  kar *  şı *  *  *  ma    |  Sev *  dâ  ne *  *  *  dir   | 
f4 f4 fgef dec2  | 
w:  bil mez dim    | 
d2e4d2 f3g fe2d  | d3e dccB B6z2  | fg3 g4 gafg e2d2  | 
w:  O  da  *  gel *  di   |  ba *  şı *  *  *  ma    |  Sev *  dâ  ne *  *  *  dir   | 
f4 f4 fgef dec2  | d2e4d2 f3g fe2d  | \
w:  bil mez dim    |  O  da  *  gel *  di   | 
d3e dccB B6z2  | 
w:  ba *  şı *  *  *  ma    | 
g2a2 a2g2 gafg f4  | g2a2 a2g2 gafg f4  | \
w:  Ge le mem  *  ben   |  gi de mem  *  ben    | 
a3a a2ag gf2g fe2d  | 
w:  Her  gü ze le  *  gö *  *  nül   | 
f2fg fe2d d6z2  | f3g g4 gafg e2d2  | \
w:  ve re *  mem  *  *  ben    |  Aç  *  kol la *  *  *  rın   | 
f4 f4 fgef dec2  | 
w:  sar  boy nu *  *  *  ma    | 
d2e2 e2d2 f2fg fe2d  | d2d=e dccB B6z2  | \
w:  Ü şü düm  *  ü şü *  düm   |  sa ra *  mam  *  *  *  ben    | 
f3g g4 gafg e2d2  | 
w:  Aç  *  kol la *  *  *  rın   | 
f4 f4 fgef dec2  | d2e2 e2d2 f2fg fe2d  | \
w:  sar  boy nu *  *  *  ma    |  Ü şü düm  *  ü şü *  düm   | 
d2d=e dccB B6z2  | 
w:  sa ra *  mam  *  *  *  ben    | 
|


